svg/u1f468_1f3ff_200d_1f9bd.svg

<svg viewBox="0 0 128 128" xmlns="http://www.w3.org/2000/svg">
  <path id="head" d="M72.59,18.83c-2.37-4.24-8-7.71-12.82-7.14c-5.4,0.64-8.46,4.37-9.44,9.23 c-0.36,1.76-0.38,3.53-0.14,4.8c0.03,0.15,0.28,1.26,0.28,1.6c0.14,1.33-2.47,2.52-2.84,3.97c-0.28,1.09,1.98,1.89,2.15,2.09 c0.85,1.02-0.78,5.69,5.47,6.4c2.18,0.25,3.54-0.12,4.3-0.06c1.8,0.15,2.8,6.11,2.8,6.11l9.21-5.57c0,0-3.07-4.51-0.39-9.14 C73.76,27.44,74.11,21.56,72.59,18.83z" fill="#70534A"/>
  <path id="mouth_1_" d="M50.31,36.04c0.87,0.09,1.74-0.08,2.5-0.59c0.83-0.56,0.31-1.25-0.63-0.9 c-0.57,0.21-1.36,0.29-2.07,0.13L50.31,36.04z" fill="#1A1717"/>
  <g id="hairGroup_1_">
    <path id="hair_1_" d="M62.06,27.68l1.04-1.47c0.65-0.83,1.24-1.55,2.03-1.37c2.33,0.56,1.83,4.73-0.96,5.6 c0,0,1.19,3.57,4.13,4.43c0.31,0.09,0.58,0.15,0.83,0.18c0.79,0.1,1.44-0.49,1.67-1.26c1.4-4.79,3-3.79,4.23-9.39 c1.69-7.68-5.03-12.94-11.6-13.59c-2.56-0.25-5.22,0.06-7.6,1.05c-1.01,0.41-4.53,2.13-5.34,3.76c-1.03,2.08,0.17,3.92,0.17,3.92 s6.07-0.72,9.19,0.06c0.41,0.1,0.87,0.25,1.05,0.64c0.08,0.17,0.1,1.23,0.1,1.42c0.07,2.4-0.19,3.89,0.47,5.43 C61.59,27.34,62.06,27.68,62.06,27.68z" fill="#232020"/>
    <radialGradient id="hairHighlights_2_" cx="121.629" cy="264.5522" gradientTransform="matrix(1.0385 0.0161 9.600000e-03 -1.0002 -66.8332 285.7911)" gradientUnits="userSpaceOnUse" r="14.8746">
      <stop offset="0.5264" stop-color="#444140" stop-opacity="0"/>
      <stop offset="1" stop-color="#444140"/>
    </radialGradient>
    <path id="hairHighlights_1_" d="M62.06,27.68l1.04-1.47c0.65-0.83,1.24-1.55,2.03-1.37 c2.33,0.56,1.83,4.73-0.96,5.6c0,0,1.19,3.57,4.13,4.43c0.31,0.09,0.58,0.15,0.83,0.18c0.79,0.1,1.44-0.49,1.67-1.26 c1.4-4.79,3-3.79,4.23-9.39c1.69-7.68-5.03-12.94-11.6-13.59c-2.56-0.25-5.22,0.06-7.6,1.05c-1.01,0.41-4.53,2.13-5.34,3.76 c-1.03,2.08,0.17,3.92,0.17,3.92s6.07-0.72,9.19,0.06c0.41,0.1,0.87,0.25,1.05,0.64c0.08,0.17,0.1,1.23,0.1,1.42 c0.07,2.4-0.19,3.89,0.47,5.43C61.59,27.34,62.06,27.68,62.06,27.68z" fill="url(#hairHighlights_2_)"/>
  </g>
  <ellipse id="eye_1_" cx="53.76" cy="28.26" rx="1.77" ry="1.15" fill="#1A1717" transform="matrix(0.0138 -0.9999 0.9999 0.0138 24.7651 81.6267)"/>
  <path id="eyebrow_1_" d="M52.99,25.61c-1.15,0.22-1.34-0.55-0.91-1.1c0.32-0.41,1.03-0.71,2.31-0.32 c1.21,0.36,1.64,1.12,1.93,1.59c0.29,0.46,0.21,0.89-0.08,0.9C55.85,26.68,54.41,25.34,52.99,25.61z" fill="#1A1717"/>
  <g id="shoe_1_">
    <path d="M43.43,116.74c0.6,0.19,1.25-0.14,1.44-0.74l0.85-2.67c0.58-1.81-0.59-4.47-0.59-4.47l-6.64-2.14 l-6.61,0.05c-1.63,0.1-3.04,1.19-3.55,2.74l-0.39,1.2c-0.17,0.53,0.12,1.09,0.65,1.26L43.43,116.74z" fill="#4568AD"/>
  </g>
  <g id="pants_1_">
    <path d="M83.14,67.06l-17.02,3.62l-0.13,2.55l-7.94,0.18c-4.88,0.48-11.67,0.17-14.27,10.49l-6.89,22.59 l9.85,3.43c0,0,7.9-21.46,8.4-21.43c0.5,0.02,15.14,0.81,24.77-0.5C89.51,86.7,83.14,67.06,83.14,67.06z" fill="#7C7C7C"/>
  </g>
  <g id="shirt_1_">
    <radialGradient id="SVGID_1_" cx="67.5601" cy="75.8868" gradientTransform="matrix(0.9502 -0.3117 -0.3117 -0.9502 26.8023 147.5889)" gradientUnits="userSpaceOnUse" r="19.4836">
      <stop offset="0.3637" stop-color="#00BFA5"/>
      <stop offset="0.8121" stop-color="#00B29A"/>
      <stop offset="1" stop-color="#00AB94"/>
    </radialGradient>
    <path d="M64.09,72.18c1.55-12.08-1.22-12.23-3.31-20.12c-1.06-4,0.37-8.61,1.95-10.5 c3.47-3.15,7.2-3.97,10.19-1.2c5.89,5.48,12.5,26.92,12.5,26.92C80.71,75.96,64.09,72.18,64.09,72.18z" fill="url(#SVGID_1_)"/>
  </g>
  <g>
    <rect height="7.14" fill="#C62828" width="4" x="78.47" y="93.17"/>
    <path d="M43.24,119.99l-15.98-5.19c-1.16-0.38-1.8-1.63-1.42-2.79l0,0c0.38-1.16,1.63-1.8,2.79-1.42 l15.98,5.19c1.16,0.38,1.8,1.63,1.42,2.79l0,0C45.65,119.73,44.4,120.37,43.24,119.99z" fill="#424242"/>
    <path d="M49.54,111.63c-3.61,0-6.53,2.93-6.53,6.53c0,3.61,2.93,6.53,6.53,6.53c3.61,0,6.53-2.93,6.53-6.53 C56.08,114.56,53.15,111.63,49.54,111.63z" fill="#78909C"/>
    <path d="M93.62,59.87c-1.81,0-1.81,1.94-1.81,2.59l-0.25,29.21L58.89,89.9c-9.36,0-13.66,3.58-17.04,14.18 l-4.78,13.87c-0.17,0.5-0.14,1.05,0.09,1.53s0.64,0.84,1.15,1.01c0.21,0.07,0.43,0.11,0.65,0.11c0.85,0,1.61-0.54,1.89-1.35 l3.55-10.29c1.84,0.6,3.14,2.35,3.14,4.32v4.88c0,1.1,0.9,2,2,2s2-0.9,2-2v-4.88c0-3.68-2.38-6.94-5.84-8.1 c2.84-8.85,5.68-11.28,13.07-11.29l32.85,1.91c1.25,0,1.92-0.14,2.63-0.96c0.79-0.95,0.8-2.47,0.8-2.48l0.38-30.19 C95.43,60.17,94.3,59.87,93.62,59.87z" fill="#F44336"/>
    <path d="M49.52,120.33L49.52,120.33c-0.99,0-1.8-0.66-1.96-1.65l-0.33-3.35c-0.08-0.53,0.37-1,0.95-1h2.54 c0.57,0,1.01,0.45,0.96,0.97l-0.12,3.39C51.56,119.59,50.51,120.33,49.52,120.33z" fill="#424242"/>
    <path d="M92.97,62.84c0-2.46-1.34-2.85-3.55-2.85h-1.64c-2.31,0.03-2.69,1.07-3.11,2.57 c-0.75,2.67-2.18,16.77-1.07,20.67c0.03,0.1,0.08,0.22,0.12,0.32l-28.96-0.85c-1.73,0-3.19,0.63-3.77,4.09c0,0-0.11,0.44,0.09,2.12 c0.2,1.68,1.31,2.44,2.76,2.51l38.84,1.88l-0.05-0.13c0.06,0.05,0.1,0.08,0.1,0.08L92.97,62.84z" fill="#424242"/>
    <path d="M70.79,92.15c2.22-2.9,5.67-4.56,10.02-4.35c5.04,0.23,8.15,3.31,9.74,5.4l3.4,0.07 c0.07-3.89,0.26-13.9,0.26-13.9c-2.54-4.26-29.74-11.62-38.87,12.08L70.79,92.15z" fill="#212121"/>
    <path d="M92.66,93.95l1.81-0.56c0-2.09-0.26-15.91-0.26-15.91c-2.67-4.46-31.97-12.63-40.07,15.72l5.24-0.02 l8.37,0.49c2.02-4.53,7.42-7.66,13.19-7.4C89.52,86.67,92.66,93.95,92.66,93.95z" fill="#F44336"/>
    <g>
      <g>
        <radialGradient id="SVGID_2_" cx="76.4697" cy="100.3062" gradientTransform="matrix(1 0 0 1 4 0)" gradientUnits="userSpaceOnUse" r="1.1067">
          <stop offset="0" stop-color="#78909C"/>
          <stop offset="0.5619" stop-color="#617A86"/>
          <stop offset="1" stop-color="#546E7A"/>
        </radialGradient>
        <path d="M80.47,101.41c-0.61,0-1.11-0.5-1.11-1.11s0.5-1.11,1.11-1.11s1.11,0.5,1.11,1.11 S81.08,101.41,80.47,101.41z" fill="url(#SVGID_2_)"/>
        <path d="M80.47,99.7c0.33,0,0.61,0.27,0.61,0.61c0,0.33-0.27,0.61-0.61,0.61s-0.61-0.27-0.61-0.61 C79.86,99.97,80.14,99.7,80.47,99.7 M80.47,98.7c-0.89,0-1.61,0.72-1.61,1.61c0,0.89,0.72,1.61,1.61,1.61 c0.89,0,1.61-0.72,1.61-1.61C82.08,99.42,81.36,98.7,80.47,98.7L80.47,98.7z" fill="#82AEC0"/>
      </g>
      <line fill="none" stroke="#82AEC0" stroke-linecap="round" stroke-miterlimit="10" x1="80.47" x2="80.47" y1="79.6" y2="121.02"/>
      <line fill="none" stroke="#82AEC0" stroke-linecap="round" stroke-miterlimit="10" x1="95.11" x2="65.83" y1="85.66" y2="114.95"/>
      <line fill="none" stroke="#82AEC0" stroke-linecap="round" stroke-miterlimit="10" x1="95.11" x2="65.83" y1="114.95" y2="85.66"/>
      <line fill="none" stroke="#82AEC0" stroke-linecap="round" stroke-miterlimit="10" x1="59.76" x2="101.18" y1="100.31" y2="100.31"/>
    </g>
    <path d="M80.47,75.91c-13.47,0-24.39,10.92-24.39,24.39S67,124.7,80.47,124.7s24.39-10.92,24.39-24.39 S93.94,75.91,80.47,75.91z M80.47,120.05c-10.9,0-19.74-8.84-19.74-19.74c0-10.9,8.84-19.74,19.74-19.74 c10.9,0,19.74,8.84,19.74,19.74C100.21,111.21,91.37,120.05,80.47,120.05z" fill="#78909C"/>
    <path d="M80.47,83.58c9.22,0,16.73,7.5,16.73,16.73s-7.5,16.73-16.73,16.73s-16.73-7.5-16.73-16.73 S71.25,83.58,80.47,83.58 M80.47,82.58c-9.79,0-17.73,7.94-17.73,17.73s7.94,17.73,17.73,17.73s17.73-7.94,17.73-17.73 S90.26,82.58,80.47,82.58L80.47,82.58z" fill="#546E7A"/>
    <circle cx="80.47" cy="100.31" r="4.11" fill="#757575"/>
    <path d="M59.54,93.59 c1.51-4.89,4.89-9.53,9.79-12.21" opacity="0.8" fill="none" stroke="#94D1E0" stroke-width="2" stroke-linecap="round" stroke-miterlimit="10"/>
    <line fill="none" stroke="#757575" stroke-linecap="round" stroke-miterlimit="10" x1="27.82" x2="37.27" y1="110.93" y2="113.97"/>
    <path d="M92.86,76.21c0,0,1.49,0.66,2.35,1.81l0.07-3.51c-0.96-0.96-2.39-1.17-2.39-1.17L92.86,76.21z" fill="#C62828"/>
    <path d="M54.7,91.41l-0.69,2.95c0,0-1.28,0.12-2.23-0.66c-1.64-1.35-1.45-2.12-1.45-2.12 c0.45-0.35,1.73-0.78,1.73-0.78s0.72,0.35,1.38,0.49S54.7,91.41,54.7,91.41z" fill="#C62828"/>
  </g>
  <linearGradient id="arm_1_" gradientTransform="matrix(1 0 0 -1 0 130)" gradientUnits="userSpaceOnUse" x1="85.9353" x2="73.9354" y1="62.9207" y2="71.2928">
    <stop offset="0.5" stop-color="#70534A"/>
    <stop offset="1" stop-color="#5C4037"/>
  </linearGradient>
  <path id="arm" d="M74.85,47.14l-5.16,5.54l9.88,6.89l-3.68,13.42l4.41,1.78c0,0,5.14-11.34,6.1-13.23 c1.58-3.14,1.44-5.08-0.53-7.32C84.82,53.04,74.85,47.14,74.85,47.14z" fill="url(#arm_1_)"/>
  <linearGradient id="hand_2_" gradientTransform="matrix(1 0 0 -1 0 130)" gradientUnits="userSpaceOnUse" x1="74.2264" x2="75.3427" y1="48.6803" y2="51.2849">
    <stop offset="0" stop-color="#70534A"/>
    <stop offset="1" stop-color="#5C4037"/>
  </linearGradient>
  <path id="hand" d="M80.63,73.49c-0.23-0.18-0.43-0.35-0.62-0.51c-0.39-0.33-0.76-0.64-1.35-1.01 c-0.72-0.44-4.15,0.93-4.93,1.22c-0.26,0.1-0.5,0.19-0.72,0.29c-0.3,0.13-0.53,0.36-0.63,0.63c-0.04,0.05-0.08,0.11-0.12,0.2 c-0.01,0.04-0.02,0.07-0.02,0.11c0,0.01-0.25,1.5-0.65,2.31c-0.16,0.31-0.07,0.84,0.26,0.96c0,0-0.19,0.77-0.33,1.16 c-0.17,0.46-0.12,0.61-0.14,0.82c-0.04,0.36,0.1,0.63,0.36,0.8c0.32,0.21,0.44,0.08,0.59,0.19s0.1,0.29,0.14,0.5 c0.11,0.56,0.58,0.71,0.77,0.73c0.62,0.06,0.8-0.33,0.91-0.33c0.2,0.01,0.24,0.18,0.26,0.31c0.06,0.28,0.36,0.43,0.64,0.52 c0.73,0.08,1.26-0.54,1.28-0.44c0.08,0.37,0.72,0.65,1.09,0.5c0.31-0.13,0.5,0.12,2.35-2.72c0.37-0.5,0.97-1.84,1.37-3.12l0.19-0.61 C81.63,75.04,81.36,74.06,80.63,73.49z" fill="url(#hand_2_)"/>
  <linearGradient id="hand_3_" gradientTransform="matrix(1 0 0 -1 0 130)" gradientUnits="userSpaceOnUse" x1="75.552" x2="73.3194" y1="52.2048" y2="48.2978">
    <stop offset="0.5" stop-color="#70534A"/>
    <stop offset="1" stop-color="#5C4037"/>
  </linearGradient>
  <path id="hand_1_" d="M78.94,71.88c-1.76-0.67-6.6,1.02-6.72,2.61c-0.03,0.36,0.46,0.92,0.9,0.73 c0,0,0,0.43,0.03,0.53c0.14,0.54,0.76,0.57,0.95,0.6c0.35,0.05,0.52,0.13,0.53,0.48c0.01,0.33,0.23,0.7,0.52,0.87 c0.32,0.18,0.57,0.22,0.96,0.12c0.18-0.05,0.28,0.06,0.34,0.24c0.08,0.25,0.28,0.59,0.49,0.69c0.39,0.2,0.64,0.16,0.92,0.15 c0.18,0,0.26,0.02,0.38,0.16c0.09,0.12,0.08,0.59,0.39,0.76c1.39,0.73,2.2-2.24,2.73-3.97C81.75,74.59,80.93,72.64,78.94,71.88z" fill="url(#hand_3_)"/>
  <g id="shirt_x5F_arm_1_">
    <path d="M74.92,57.53l5.87-9.39l-8.35-5.22c-2.59-1.62-6.01-0.83-7.63,1.76l0,0 c-1.62,2.59-0.83,6.01,1.76,7.63L74.92,57.53z" fill="#04A287"/>
  </g>
</svg>

<svg viewBox="0 0 128 128" xmlns="http://www.w3.org/2000/svg">
  <defs>
    <linearGradient id="arm_1_" gradientTransform="matrix(1 0 0 -1 0 0)" gradientUnits="userSpaceOnUse" x1="85.9353" x2="73.9354" y1="-67.0793" y2="-58.7072">
      <stop offset="0.5" stop-color="#70534A"/>
      <stop offset="1" stop-color="#5C4037"/>
    </linearGradient>
    <linearGradient id="hand_2_" gradientTransform="matrix(1 0 0 -1 0 0)" gradientUnits="userSpaceOnUse" x1="74.2264" x2="75.3427" y1="-81.3197" y2="-78.7151">
      <stop offset="0" stop-color="#70534A"/>
      <stop offset="1" stop-color="#5C4037"/>
    </linearGradient>
    <linearGradient id="hand_3_" gradientTransform="matrix(1 0 0 -1 0 0)" gradientUnits="userSpaceOnUse" x1="75.552" x2="73.3194" y1="-77.7952" y2="-81.7022">
      <stop offset="0.5" stop-color="#70534A"/>
      <stop offset="1" stop-color="#5C4037"/>
    </linearGradient>
    <radialGradient id="hairHighlights_2_" cx="59.924023" cy="-22.175005" gradientTransform="matrix(1.0385 0.0161 0.0096 -1.0002 0 0)" gradientUnits="userSpaceOnUse" r="14.8746">
      <stop offset="0.5264" stop-color="#444140" stop-opacity="0"/>
      <stop offset="1" stop-color="#444140"/>
    </radialGradient>
    <radialGradient id="SVGID_1_" cx="47.024944" cy="-72.700962" gradientTransform="matrix(0.9502 -0.3117 -0.3117 -0.9502 0 0)" gradientUnits="userSpaceOnUse" r="19.4836">
      <stop offset="0.3637" stop-color="#00BFA5"/>
      <stop offset="0.8121" stop-color="#00B29A"/>
      <stop offset="1" stop-color="#00AB94"/>
    </radialGradient>
    <radialGradient id="SVGID_2_" cx="80.4697" cy="100.3062" gradientUnits="userSpaceOnUse" r="1.1067">
      <stop offset="0" stop-color="#78909C"/>
      <stop offset="0.5619" stop-color="#617A86"/>
      <stop offset="1" stop-color="#546E7A"/>
    </radialGradient>
  </defs>
  <path id="head" d="M72.59,18.83 C70.22,14.59 64.59,11.12 59.77,11.69 C54.37,12.33 51.31,16.06 50.33,20.92 C49.97,22.68 49.95,24.45 50.19,25.72 C50.22,25.87 50.47,26.98 50.47,27.32 C50.61,28.65 48,29.84 47.63,31.29 C47.35,32.38 49.61,33.18 49.78,33.38 C50.63,34.4 49,39.07 55.25,39.78 C57.43,40.03 58.79,39.66 59.55,39.72 C61.35,39.87 62.35,45.83 62.35,45.83 L71.56,40.26 C71.56,40.26 68.49,35.75 71.17,31.12 C73.76,27.44 74.11,21.56 72.59,18.83 Z" fill="#70534A"/>
  <path id="mouth_1_" d="M50.31,36.04 C51.18,36.13 52.05,35.96 52.81,35.45 C53.64,34.89 53.12,34.2 52.18,34.55 C51.61,34.76 50.82,34.84 50.11,34.68 L50.31,36.04 Z" fill="#1A1717"/>
  <path id="hair_1_" d="M62.06,27.68 L63.1,26.21 C63.75,25.38 64.34,24.66 65.13,24.84 C67.46,25.4 66.96,29.57 64.17,30.44 C64.17,30.44 65.36,34.01 68.3,34.87 C68.61,34.96 68.88,35.02 69.13,35.05 C69.92,35.15 70.57,34.56 70.8,33.79 C72.2,29 73.8,30 75.03,24.4 C76.72,16.72 70,11.46 63.43,10.81 C60.87,10.56 58.21,10.87 55.83,11.86 C54.82,12.27 51.3,13.99 50.49,15.62 C49.46,17.7 50.66,19.54 50.66,19.54 C50.66,19.54 56.73,18.82 59.85,19.6 C60.26,19.7 60.72,19.85 60.9,20.24 C60.98,20.41 61,21.47 61,21.66 C61.07,24.06 60.81,25.55 61.47,27.09 C61.59,27.34 62.06,27.68 62.06,27.68 Z" fill="#232020"/>
  <path id="hairHighlights_1_" d="M62.06,27.68 L63.1,26.21 C63.75,25.38 64.34,24.66 65.13,24.84 C67.46,25.4 66.96,29.57 64.17,30.44 C64.17,30.44 65.36,34.01 68.3,34.87 C68.61,34.96 68.88,35.02 69.13,35.05 C69.92,35.15 70.57,34.56 70.8,33.79 C72.2,29 73.8,30 75.03,24.4 C76.72,16.72 70,11.46 63.43,10.81 C60.87,10.56 58.21,10.87 55.83,11.86 C54.82,12.27 51.3,13.99 50.49,15.62 C49.46,17.7 50.66,19.54 50.66,19.54 C50.66,19.54 56.73,18.82 59.85,19.6 C60.26,19.7 60.72,19.85 60.9,20.24 C60.98,20.41 61,21.47 61,21.66 C61.07,24.06 60.81,25.55 61.47,27.09 C61.59,27.34 62.06,27.68 62.06,27.68 Z" fill="url(#hairHighlights_2_)"/>
  <path id="eye_1_" d="M53.789,26.492 C54.424,26.501 54.928,27.3 54.914,28.278 C54.901,29.255 54.375,30.041 53.74,30.032 C53.105,30.023 52.601,29.224 52.614,28.246 C52.628,27.269 53.154,26.483 53.789,26.492 Z" fill="#1A1717"/>
  <path id="eyebrow_1_" d="M52.99,25.61 C51.84,25.83 51.65,25.06 52.08,24.51 C52.4,24.1 53.11,23.8 54.39,24.19 C55.6,24.55 56.03,25.31 56.32,25.78 C56.61,26.24 56.53,26.67 56.24,26.68 C55.85,26.68 54.41,25.34 52.99,25.61 Z" fill="#1A1717"/>
  <path d="M43.43,116.74 C44.03,116.93 44.68,116.6 44.87,116 L45.72,113.33 C46.3,111.52 45.13,108.86 45.13,108.86 L38.49,106.72 L31.88,106.77 C30.25,106.87 28.84,107.96 28.33,109.51 L27.94,110.71 C27.77,111.24 28.06,111.8 28.59,111.97 L43.43,116.74 Z" fill="#4568AD"/>
  <path d="M83.14,67.06 L66.12,70.68 L65.99,73.23 L58.05,73.41 C53.17,73.89 46.38,73.58 43.78,83.9 L36.89,106.49 L46.74,109.92 C46.74,109.92 54.64,88.46 55.14,88.49 C55.64,88.51 70.28,89.3 79.91,87.99 C89.51,86.7 83.14,67.06 83.14,67.06 Z" fill="#7C7C7C"/>
  <path d="M64.09,72.18 C65.64,60.1 62.87,59.95 60.78,52.06 C59.72,48.06 61.15,43.45 62.73,41.56 C66.2,38.41 69.93,37.59 72.92,40.36 C78.81,45.84 85.42,67.28 85.42,67.28 C80.71,75.96 64.09,72.18 64.09,72.18 Z" fill="url(#SVGID_1_)"/>
  <path d="M78.47,93.17 L82.47,93.17 L82.47,100.31 L78.47,100.31 L78.47,93.17 Z" fill="#C62828"/>
  <path d="M43.24,119.99 L27.26,114.8 C26.1,114.42 25.46,113.17 25.84,112.01 L25.84,112.01 C26.22,110.85 27.47,110.21 28.63,110.59 L44.61,115.78 C45.77,116.16 46.41,117.41 46.03,118.57 L46.03,118.57 C45.65,119.73 44.4,120.37 43.24,119.99 Z" fill="#424242"/>
  <path d="M49.54,111.63 C45.93,111.63 43.01,114.56 43.01,118.16 C43.01,121.77 45.94,124.69 49.54,124.69 C53.15,124.69 56.07,121.76 56.07,118.16 C56.08,114.56 53.15,111.63 49.54,111.63 Z" fill="#78909C"/>
  <path d="M93.62,59.87 C91.81,59.87 91.81,61.81 91.81,62.46 L91.56,91.67 L58.89,89.9 C49.53,89.9 45.23,93.48 41.85,104.08 L37.07,117.95 C36.9,118.45 36.93,119 37.16,119.48 C37.39,119.96 37.8,120.32 38.31,120.49 C38.52,120.56 38.74,120.6 38.96,120.6 C39.81,120.6 40.57,120.06 40.85,119.25 L44.4,108.96 C46.24,109.56 47.54,111.31 47.54,113.28 L47.54,118.16 C47.54,119.26 48.44,120.16 49.54,120.16 C50.64,120.16 51.54,119.26 51.54,118.16 L51.54,113.28 C51.54,109.6 49.16,106.34 45.7,105.18 C48.54,96.33 51.38,93.9 58.77,93.89 L91.62,95.8 C92.87,95.8 93.54,95.66 94.25,94.84 C95.04,93.89 95.05,92.37 95.05,92.36 L95.43,62.17 C95.43,60.17 94.3,59.87 93.62,59.87 Z" fill="#F44336"/>
  <path d="M49.52,120.33 L49.52,120.33 C48.53,120.33 47.72,119.67 47.56,118.68 L47.23,115.33 C47.15,114.8 47.6,114.33 48.18,114.33 L50.72,114.33 C51.29,114.33 51.73,114.78 51.68,115.3 L51.56,118.69 C51.56,119.59 50.51,120.33 49.52,120.33 Z" fill="#424242"/>
  <path d="M92.97,62.84 C92.97,60.38 91.63,59.99 89.42,59.99 L87.78,59.99 C85.47,60.02 85.09,61.06 84.67,62.56 C83.92,65.23 82.49,79.33 83.6,83.23 C83.63,83.33 83.68,83.45 83.72,83.55 L54.76,82.7 C53.03,82.7 51.57,83.33 50.99,86.79 C50.99,86.79 50.88,87.23 51.08,88.91 C51.28,90.59 52.39,91.35 53.84,91.42 L92.68,93.3 L92.63,93.17 C92.69,93.22 92.73,93.25 92.73,93.25 L92.97,62.84 Z" fill="#424242"/>
  <path d="M70.79,92.15 C73.01,89.25 76.46,87.59 80.81,87.8 C85.85,88.03 88.96,91.11 90.55,93.2 L93.95,93.27 C94.02,89.38 94.21,79.37 94.21,79.37 C91.67,75.11 64.47,67.75 55.34,91.45 L70.79,92.15 Z" fill="#212121"/>
  <path d="M92.66,93.95 L94.47,93.39 C94.47,91.3 94.21,77.48 94.21,77.48 C91.54,73.02 62.24,64.85 54.14,93.2 L59.38,93.18 L67.75,93.67 C69.77,89.14 75.17,86.01 80.94,86.27 C89.52,86.67 92.66,93.95 92.66,93.95 Z" fill="#F44336"/>
  <path d="M80.47,101.41 C79.86,101.41 79.36,100.91 79.36,100.3 C79.36,99.69 79.86,99.19 80.47,99.19 C81.08,99.19 81.58,99.69 81.58,100.3 C81.58,100.91 81.08,101.41 80.47,101.41 Z" fill="url(#SVGID_2_)"/>
  <path d="M80.47,99.7 C80.8,99.7 81.08,99.97 81.08,100.31 C81.08,100.64 80.81,100.92 80.47,100.92 C80.13,100.92 79.86,100.65 79.86,100.31 C79.86,99.97 80.14,99.7 80.47,99.7 M80.47,98.7 C79.58,98.7 78.86,99.42 78.86,100.31 C78.86,101.2 79.58,101.92 80.47,101.92 C81.36,101.92 82.08,101.2 82.08,100.31 C82.08,99.42 81.36,98.7 80.47,98.7 L80.47,98.7 Z" fill="#82AEC0"/>
  <path d="M80.97,79.6 L80.97,121.02 Q80.97,121.52 80.47,121.52 Q79.97,121.52 79.97,121.02 L79.97,79.6 Q79.97,79.1 80.47,79.1 Q80.97,79.1 80.97,79.6 Z" fill="#82AEC0"/>
  <path d="M95.464,86.013 L66.184,115.303 Q65.83,115.657 65.477,115.304 Q65.123,114.95 65.476,114.597 L94.756,85.307 Q95.11,84.953 95.463,85.306 Q95.817,85.66 95.464,86.013 Z" fill="#82AEC0"/>
  <path d="M94.756,115.303 L65.476,86.013 Q65.123,85.66 65.477,85.306 Q65.83,84.953 66.184,85.307 L95.464,114.597 Q95.817,114.95 95.463,115.304 Q95.11,115.657 94.756,115.303 Z" fill="#82AEC0"/>
  <path d="M59.76,99.81 L101.18,99.81 Q101.68,99.81 101.68,100.31 Q101.68,100.81 101.18,100.81 L59.76,100.81 Q59.26,100.81 59.26,100.31 Q59.26,99.81 59.76,99.81 Z" fill="#82AEC0"/>
  <path d="M80.47,75.91 C67,75.91 56.08,86.83 56.08,100.3 C56.08,113.77 67,124.7 80.47,124.7 C93.94,124.7 104.86,113.78 104.86,100.31 C104.86,86.84 93.94,75.91 80.47,75.91 Z M80.47,120.05 C69.57,120.05 60.73,111.21 60.73,100.31 C60.73,89.41 69.57,80.57 80.47,80.57 C91.37,80.57 100.21,89.41 100.21,100.31 C100.21,111.21 91.37,120.05 80.47,120.05 Z" fill="#78909C"/>
  <path d="M80.47,83.58 C89.69,83.58 97.2,91.08 97.2,100.31 C97.2,109.54 89.7,117.04 80.47,117.04 C71.24,117.04 63.74,109.54 63.74,100.31 C63.74,91.08 71.25,83.58 80.47,83.58 M80.47,82.58 C70.68,82.58 62.74,90.52 62.74,100.31 C62.74,110.1 70.68,118.04 80.47,118.04 C90.26,118.04 98.2,110.1 98.2,100.31 C98.2,90.52 90.26,82.58 80.47,82.58 L80.47,82.58 Z" fill="#546E7A"/>
  <path d="M84.58,100.31 A4.11 4.11 0 1 1 76.36,100.31 A4.11 4.11 0 1 1 84.58,100.31 Z" fill="#757575"/>
  <path d="M58.585,93.295 Q61.251,84.659 68.85,80.503 Q69.727,80.023 70.207,80.9 Q70.687,81.777 69.81,82.257 Q62.923,86.024 60.495,93.885 Q60.2,94.841 59.245,94.545 Q58.767,94.398 58.602,94.085 Q58.437,93.773 58.585,93.295 Z" fill="#94D1E0" opacity="0.8"/>
  <path d="M27.973,110.454 L37.423,113.494 Q37.899,113.647 37.746,114.123 Q37.669,114.361 37.512,114.442 Q37.355,114.523 37.117,114.446 L27.667,111.406 Q27.191,111.253 27.344,110.777 Q27.421,110.539 27.578,110.458 Q27.735,110.377 27.973,110.454 Z" fill="#757575"/>
  <path d="M92.86,76.21 C92.86,76.21 94.35,76.87 95.21,78.02 L95.28,74.51 C94.32,73.55 92.89,73.34 92.89,73.34 L92.86,76.21 Z" fill="#C62828"/>
  <path d="M54.7,91.41 L54.01,94.36 C54.01,94.36 52.73,94.48 51.78,93.7 C50.14,92.35 50.33,91.58 50.33,91.58 C50.78,91.23 52.06,90.8 52.06,90.8 C52.06,90.8 52.78,91.15 53.44,91.29 C54.1,91.43 54.7,91.41 54.7,91.41 Z" fill="#C62828"/>
  <path id="arm" d="M74.85,47.14 L69.69,52.68 L79.57,59.57 L75.89,72.99 L80.3,74.77 C80.3,74.77 85.44,63.43 86.4,61.54 C87.98,58.4 87.84,56.46 85.87,54.22 C84.82,53.04 74.85,47.14 74.85,47.14 Z" fill="url(#arm_1_)"/>
  <path id="hand" d="M80.63,73.49 C80.4,73.31 80.2,73.14 80.01,72.98 C79.62,72.65 79.25,72.34 78.66,71.97 C77.94,71.53 74.51,72.9 73.73,73.19 C73.47,73.29 73.23,73.38 73.01,73.48 C72.71,73.61 72.48,73.84 72.38,74.11 C72.34,74.16 72.3,74.22 72.26,74.31 C72.25,74.35 72.24,74.38 72.24,74.42 C72.24,74.43 71.99,75.92 71.59,76.73 C71.43,77.04 71.52,77.57 71.85,77.69 C71.85,77.69 71.66,78.46 71.52,78.85 C71.35,79.31 71.4,79.46 71.38,79.67 C71.34,80.03 71.48,80.3 71.74,80.47 C72.06,80.68 72.18,80.55 72.33,80.66 C72.48,80.77 72.43,80.95 72.47,81.16 C72.58,81.72 73.05,81.87 73.24,81.89 C73.86,81.95 74.04,81.56 74.15,81.56 C74.35,81.57 74.39,81.74 74.41,81.87 C74.47,82.15 74.77,82.3 75.05,82.39 C75.78,82.47 76.31,81.85 76.33,81.95 C76.41,82.32 77.05,82.6 77.42,82.45 C77.73,82.32 77.92,82.57 79.77,79.73 C80.14,79.23 80.74,77.89 81.14,76.61 L81.33,76 C81.63,75.04 81.36,74.06 80.63,73.49 Z" fill="url(#hand_2_)"/>
  <path id="hand_1_" d="M78.94,71.88 C77.18,71.21 72.34,72.9 72.22,74.49 C72.19,74.85 72.68,75.41 73.12,75.22 C73.12,75.22 73.12,75.65 73.15,75.75 C73.29,76.29 73.91,76.32 74.1,76.35 C74.45,76.4 74.62,76.48 74.63,76.83 C74.64,77.16 74.86,77.53 75.15,77.7 C75.47,77.88 75.72,77.92 76.11,77.82 C76.29,77.77 76.39,77.88 76.45,78.06 C76.53,78.31 76.73,78.65 76.94,78.75 C77.33,78.95 77.58,78.91 77.86,78.9 C78.04,78.9 78.12,78.92 78.24,79.06 C78.33,79.18 78.32,79.65 78.63,79.82 C80.02,80.55 80.83,77.58 81.36,75.85 C81.75,74.59 80.93,72.64 78.94,71.88 Z" fill="url(#hand_3_)"/>
  <path d="M74.92,57.53 L80.79,48.14 L72.44,42.92 C69.85,41.3 66.43,42.09 64.81,44.68 L64.81,44.68 C63.19,47.27 63.98,50.69 66.57,52.31 L74.92,57.53 Z" fill="#04A287"/>
</svg>
